antibot/app/images/dist/why/why-icon1.svg

<svg width="38" height="24" viewBox="0 0 38 24" fill="none" xmlns="http://www.w3.org/2000/svg">
<path d="M13.319 15.8009H1.9C0.855 15.8009 0 16.6559 0 17.7009C0 18.7459 0.855 19.6009 1.9 19.6009H13.319V23.0019C13.319 23.8569 14.345 24.2749 14.934 23.6669L20.216 18.3659C20.577 17.9859 20.577 17.3969 20.216 17.0169L14.934 11.7158C14.345 11.1078 13.319 11.5448 13.319 12.3808V15.8009ZM24.681 11.6018V8.20083H36.1C37.145 8.20083 38 7.34583 38 6.30082C38 5.25582 37.145 4.40081 36.1 4.40081H24.681V0.999795C24.681 0.144791 23.655 -0.273211 23.066 0.334792L17.784 5.63582C17.423 6.01582 17.423 6.60482 17.784 6.98482L23.066 12.2858C23.1999 12.4171 23.3698 12.5059 23.554 12.5408C23.7383 12.5757 23.9288 12.5554 24.1015 12.4822C24.2742 12.4091 24.4214 12.2864 24.5245 12.1298C24.6277 11.9731 24.6821 11.7894 24.681 11.6018Z" fill="#29B74D"/>
</svg>

<svg width="38" height="24" fill="none" xmlns="http://www.w3.org/2000/svg"><path d="M13.319 15.8H1.9c-1.045 0-1.9.856-1.9 1.9 0 1.046.855 1.9 1.9 1.9h11.419v3.402c0 .855 1.026 1.273 1.615.665l5.282-5.301a.976.976 0 0 0 0-1.35l-5.282-5.3c-.589-.608-1.615-.171-1.615.665v3.42Zm11.362-4.198V8.2H36.1c1.045 0 1.9-.855 1.9-1.9s-.855-1.9-1.9-1.9H24.681V1c0-.855-1.026-1.273-1.615-.665l-5.282 5.3a.976.976 0 0 0 0 1.35l5.282 5.3a.95.95 0 0 0 1.615-.683Z" fill="#29B74D"/></svg>
